X: 1
T: Down by the Sally Gardens
T: the Maids of Mourne Shore
T: an Traigh Mughdhorna
C: trad.
R: air
Z: 2020 John Chambers <jc:trillian.mit.edu>
S: https://www.facebook.com/groups/Fiddletuneoftheday/ 2020-11/18
S: https://www.facebook.com/groups/Fiddletuneoftheday/photos/
M: C
L: 1/8
K: D
"^A"[|] DE | "D"F2ED "A"E2FA |   "G"B4 "D"A2dA | "G"B2AF    E3D  | "D"D6 :|
"^B"[|] A2 | "Bm"d2cA   B2cd | "F#m"c3B   A2FA | "G"B2AF "A"ABde | "D"d6 ||
"^A"[|] DE | "D"F2ED "A"E2FA |   "G"B4 "D"A2dA | "G"B2AF "A"E3D  | "D"D6 |]
